X:1
T:IN TSARDOM
M:4/4
Q:1/4=120
K:D
A15/2d/2|c2B3/2A/2B2A3/2G/2|A4F2F3/2F/2|A2G3/2E/2A2G3/2A/2|
F6A3/2d/2|B2B3/2A/2B2A3/2^G/2|A4F2A3/2d/2|
f2e3/2A/2f2e3/2f/2|d11/2||
